X:1
T:Polska efter en visa
R:Polska
S:Efter Erik Ljung
O:Delsbo, Hälsingland
B:SMUS
Z:Håkan Lidén, 2010-06-03
N: Sjöngs av Korpral Ljung från Järfsö, bodde på Järnvallen, Delsbo socken
N: Finns på SMUS
M:3/4
L:1/8
K:Dm
|: A | d^c de f/e/f/a/ | ge d3 ^f | ^fe df af | d>^f e3 :|[K:D] 
|: g | fe fa gf | ed cd Bc | Ac dg fa | ge d3 :|]

